!!!OTL: Bachuan hozi
!!!ARE: Asia, China, Fujian, Ningde
!! II, 599
!!!SCT: C1533
!!!YEM: Copyright 1995, estate of Helmut Schaffrath.
**kern
*ICvox
*Ivox
!! Mixed meters:  2/4; 3/4
*M3/4
*k[f#]
*G:
{4a
16b
16a
8b
=1
8b
16b
16a
4a
=2
16b
8.a
8a
16g
16e
=3
4.d
8e}
=4
{8.g
16a
16g
16a
16g
16e
=5
4.d
8e
=6
8.g
16a
16g
16a
16g
16e
=7
4d
4d}
=8
{4a
8b
8a
4a
=9
*M2/4
8b
16b
16a
4a
=10
8a
4a
8e
=11
4g
4g}
=12
{8.g
16a
16g
16a
16g
16e
=13
4.d
8e
=14
8g
8a
16g
16a
16g
16e
=15
4d
4d}
=16
{8e
8e
4a
=17
8a
8a
8b
8a
=18
8a
8g
4e
=19
4a
8a
8b}
=20
{8a
16a
16b
16a
16g
8e
=21
4.d
8e
=22
8a
16g
16a
16g
16a
16g
16e
=23
4d
4d}
=24
{8g
8g
16a
16g
8e
=25
8b
4a
8a
=26
8g
8a
4e
=27
4d
4d}
=28
{8.e
16g
16e
16d
8B
=29
4d
4d
=30
8.e
16g
16e
16d
8B
=31
4d
4d}
=32
{8a
4a
8b
=33
8a
16a
16b
8b
8a
=34
4a
4e
=35
2g}
=36
{8g
16g
16a
16g
16a
16g
16e
=37
2d
=38
8g
16g
16a
16g
16a
16g
16e
=39
2d}
=40
{8a
4a
8b
=41
8b
16a
16b
16a
16g
8e
=42
8e
16e
16g
16a
16b
16a
16e
=43
4g
4g}
=44
{2a
=45
8g
8a
16g
16a
16g
16e
=46
2d
=47
8g
8a
16g
16a
16g
16e
=48
2d}
=49
{4a
8b
8a
=50
8b
16a
16b
16a
16g
8e
=51
8e
8e
8a
8e
=52
2g}
=53
{8g
8a
16g
16a
16g
16e
=54
2d
=55
8g
8a
16g
16a
16g
16e
=56
2d}
=57
{8g
4g
8e
=58
8a
8b
8a
8b
=59
8g
8a
4b
=60
4a
4a}
=61
{8a
8b
16a
16b
16a
16e
=62
4d
8.d
16e
=63
8.g
16a
16g
16a
16g
16e
=64
4d
4d}
=65
{8e
4e
8r
=66
8b
8b
8a
8b
=67
4a
4e
=68
2g}
=69
{8g
8a
16g
16a
16g
16e
=70
[4d
8.d]
16e
=71
8.g
16a
8a
16g
16e
=72
2d}
==
!!!AGN: Haozi, Chuangong haozi
!!!AMT: irregular
!!!AIN: vox
!!!EED: Helmut Schaffrath
!!!EEV: 1.0
*-
